svg/question_circle_outline.svg

<svg width="48" height="48" viewBox="0 0 48 48" fill="none" xmlns="http://www.w3.org/2000/svg">
<path fill-rule="evenodd" clip-rule="evenodd" d="M23.9997 4C12.9538 4 3.99994 12.9539 3.99994 23.9997C3.99994 35.0456 12.9538 43.9995 23.9997 43.9995C35.0455 43.9995 43.9994 35.0456 43.9994 23.9997C43.9994 12.9539 35.0455 4 23.9997 4ZM23.9997 4.51759C34.7596 4.51759 43.4814 13.2409 43.4814 23.9993C43.4814 34.7578 34.7596 43.4791 23.9997 43.4791C13.2398 43.4791 4.51793 34.7592 4.51793 23.9993C4.51713 13.2395 13.2398 4.51759 23.9997 4.51759ZM24.0837 12.5469C22.2147 12.5469 20.6957 13.0609 19.5247 14.0879C18.3648 15.1049 17.7748 16.4438 17.7538 18.1068H20.6037C20.6037 17.1728 20.9217 16.4288 21.5587 15.8749C22.1947 15.3199 23.0357 15.0429 24.0837 15.0429C25.1617 15.0429 25.9837 15.3509 26.5487 15.9668C27.1136 16.5728 27.3956 17.4158 27.3956 18.4938C27.3956 19.6138 26.9657 20.6608 26.1037 21.6368L24.0837 23.7148C23.2927 24.5767 22.7697 25.3637 22.5137 26.0717C22.2567 26.7807 22.1177 27.7467 22.0977 28.9687H24.9467C24.9467 27.4077 25.3227 26.2107 26.0717 25.3787L27.7496 23.7148C29.4136 21.9688 30.2456 20.1978 30.2456 18.3998C30.2456 16.5828 29.7016 15.1559 28.6126 14.1189C27.5346 13.0719 26.0247 12.5469 24.0837 12.5469ZM23.8607 13.0569H24.1817C27.2476 13.2629 29.4836 14.5209 29.7286 18.2968V18.6168C29.5436 21.8438 27.3626 23.0748 25.7967 24.9197L25.5837 25.1577C24.5427 26.2567 24.5187 27.3557 24.4487 28.4547H22.6107C22.5707 26.2747 23.3817 25.1587 24.3277 24.2127L24.5427 23.9747C27.5966 21.3598 27.9726 19.8718 27.8976 18.5738V18.2538C27.7976 16.0708 26.8547 14.5929 24.2207 14.5309H23.8997C22.0417 14.6889 20.5417 15.3689 20.0917 17.5978L18.2908 17.5958C18.7818 14.6739 20.7037 13.2289 23.8607 13.0569ZM23.6537 32.2186C23.0997 32.2186 22.6777 32.3766 22.3907 32.6946C22.1127 33.0026 21.9747 33.3886 21.9747 33.8516C21.9747 34.3136 22.1127 34.6976 22.3907 35.0056C22.6777 35.3036 23.0997 35.4526 23.6537 35.4526C24.2087 35.4526 24.6277 35.3036 24.9157 35.0056C25.2037 34.6976 25.3477 34.3136 25.3477 33.8516C25.3477 33.3886 25.2037 33.0026 24.9157 32.6946C24.6277 32.3766 24.2087 32.2186 23.6537 32.2186ZM23.6557 32.7266C24.0367 32.7266 24.3237 32.8336 24.5207 33.0526C24.7187 33.2636 24.8177 33.5286 24.8177 33.8456C24.8177 34.1626 24.7187 34.4266 24.5207 34.6386C24.3237 34.8426 24.0367 34.9446 23.6557 34.9446C23.2757 34.9446 22.9857 34.8426 22.7887 34.6386C22.5987 34.4266 22.5037 34.1626 22.5037 33.8456C22.5037 33.5286 22.5987 33.2636 22.7887 33.0526C22.9857 32.8336 23.2757 32.7266 23.6557 32.7266Z" fill="#333333"/>
</svg>

<?xml version="1.0" encoding="UTF-8" standalone="no"?>
<!-- Created with Inkscape (http://www.inkscape.org/) -->
<svg id="svg8" xmlns:rdf="http://www.w3.org/1999/02/22-rdf-syntax-ns#" xmlns="http://www.w3.org/2000/svg" height="48" viewBox="0 0 12.7 12.7" width="48" version="1.1" xmlns:cc="http://creativecommons.org/ns#" xmlns:dc="http://purl.org/dc/elements/1.1/">
 <title id="title4753">UIO-icon</title>
 <metadata id="metadata5">
  <rdf:RDF>
   <cc:Work rdf:about="">
    <dc:format>image/svg+xml</dc:format>
    <dc:type rdf:resource="http://purl.org/dc/dcmitype/StillImage"/>
    <dc:title>UIO-icon</dc:title>
    <dc:creator>
     <cc:Agent>
      <dc:title>Joaquín Urbano</dc:title>
     </cc:Agent>
    </dc:creator>
    <dc:rights>
     <cc:Agent>
      <dc:title>GPL</dc:title>
     </cc:Agent>
    </dc:rights>
   </cc:Work>
  </rdf:RDF>
 </metadata>
 <path id="rect883" d="m24 4c-11.046 0-20 8.954-20 20s8.954 20 20 20 20-8.954 20-20-8.954-20-20-20zm0 0.5176c10.76 0 19.482 8.7234 19.482 19.482s-8.722 19.48-19.482 19.48-19.482-8.72-19.482-19.48c-0.0008-10.76 8.722-19.482 19.482-19.482zm0.084 8.0294c-1.869 0-3.388 0.514-4.559 1.541-1.16 1.017-1.75 2.356-1.771 4.019h2.85c0-0.934 0.318-1.678 0.955-2.232 0.636-0.555 1.477-0.832 2.525-0.832 1.078 0 1.9 0.308 2.465 0.924 0.565 0.606 0.847 1.449 0.847 2.527 0 1.12-0.43 2.167-1.292 3.143l-2.02 2.078c-0.791 0.862-1.314 1.649-1.57 2.357-0.257 0.709-0.396 1.675-0.416 2.897h2.849c0-1.561 0.376-2.758 1.125-3.59l1.678-1.664c1.664-1.746 2.496-3.517 2.496-5.315 0-1.817-0.544-3.244-1.633-4.281-1.078-1.047-2.588-1.572-4.529-1.572zm-0.223 0.51h0.321c3.066 0.206 5.302 1.464 5.547 5.24v0.32c-0.185 3.227-2.366 4.458-3.932 6.303l-0.213 0.238c-1.041 1.099-1.065 2.198-1.135 3.297h-1.838c-0.04-2.18 0.771-3.296 1.717-4.242l0.215-0.238c3.054-2.615 3.43-4.103 3.355-5.401v-0.32c-0.1-2.183-1.043-3.661-3.677-3.723h-0.321c-1.858 0.158-3.358 0.838-3.808 3.067l-1.801-0.002c0.491-2.922 2.413-4.367 5.57-4.539zm-0.207 19.162c-0.554 0-0.976 0.158-1.263 0.476-0.278 0.308-0.416 0.694-0.416 1.157 0 0.462 0.138 0.846 0.416 1.154 0.287 0.298 0.709 0.447 1.263 0.447 0.555 0 0.974-0.149 1.262-0.447 0.288-0.308 0.432-0.692 0.432-1.154 0-0.463-0.144-0.849-0.432-1.157-0.288-0.318-0.707-0.476-1.262-0.476zm0.002 0.508c0.381 0 0.668 0.107 0.865 0.326 0.198 0.211 0.297 0.476 0.297 0.793s-0.099 0.581-0.297 0.793c-0.197 0.204-0.484 0.306-0.865 0.306-0.38 0-0.67-0.102-0.867-0.306-0.19-0.212-0.285-0.476-0.285-0.793s0.095-0.582 0.285-0.793c0.197-0.219 0.487-0.326 0.867-0.326z" fill-rule="evenodd" transform="scale(.26458)" stroke-width=".99999" fill="#333"/>
</svg>
